client/src/assets/images/icon-prior-treatment.svg

<svg fill="none" height="69" viewBox="0 0 69 69" width="69" xmlns="http://www.w3.org/2000/svg"><g fill="#fff"><path d="m40.7214 50.8374h-38.58548v-30.0021h50.72818v6.9074c0 .2853.1125.559.3128.7608s.4719.3151.7551.3151c.2833 0 .5549-.1133.7552-.3151s.3128-.4755.3128-.7608v-18.85557c0-.28535-.1125-.55902-.3128-.76079-.2003-.20178-.4719-.31513-.7552-.31513h-15.5655v-6.73529c0-.285349-.1125-.559014-.3128-.760789s-.4719-.315131-.7552-.315131c-.2832 0-.5548.113356-.7551.315131s-.3128.47544-.3128.760789v6.73529h-17.4612v-6.73529c0-.285349-.1125-.559014-.3128-.760789s-.4719-.315131-.7551-.315131c-.2833 0-.5549.113356-.7552.315131s-.3128.47544-.3128.760789v6.73529h-15.56554c-.28324 0-.55488.11335-.755161.31513-.200282.20177-.312799.47544-.312799.76079v43.03697c0 .2853.112517.559.312799.7608.200281.2017.471921.3151.755161.3151h39.65344c.2832 0 .5548-.1134.7551-.3151.2003-.2018.3128-.4755.3128-.7608 0-.2854-.1125-.559-.3128-.7608s-.4719-.3151-.7551-.3151zm-24.0879-40.88511v3.33541c0 .2853.1125.559.3128.7608.2003.2017.4719.3151.7552.3151.2832 0 .5548-.1134.7551-.3151.2003-.2018.3128-.4755.3128-.7608v-3.32465h17.4612v3.32465c0 .2853.1125.559.3128.7608.2003.2017.4719.3151.7551.3151.2833 0 .5549-.1134.7552-.3151.2003-.2018.3128-.4755.3128-.7608v-3.32465h14.4976v8.72035h-50.72818v-8.72035z"/><path d="m37.8437 47c.2859 0 .5602-.113.7623-.3142.2022-.2012.3158-.474.3158-.7586v-9.7514c.286 0 .5602-.113.7624-.3142.2022-.2011.3158-.474.3158-.7585s-.1136-.5574-.3158-.7586-.4764-.3142-.7624-.3142v-8.9575c0-.2846-.1136-.5574-.3158-.7586-.2021-.2012-.4764-.3142-.7623-.3142-.286 0-.5602.113-.7624.3142s-.3158.474-.3158.7586v8.9736h-17.628v-8.9736c0-.2846-.1136-.5574-.3158-.7586s-.4765-.3142-.7624-.3142-.5602.113-.7624.3142-.3158.474-.3158.7586v8.9736h-9.90293c-.14159 0-.28179.0278-.4126.0817s-.24966.1329-.34978.2325-.17954.2179-.23372.348c-.05418.1302-.08207.2697-.08207.4106 0 .1408.02789.2803.08207.4105s.1336.2484.23372.348.21897.1787.34978.2326.27101.0816.4126.0816h9.90293v9.7353c0 .2846.1136.5574.3158.7586s.4765.3142.7624.3142.5602-.113.7624-.3142.3158-.474.3158-.7586v-9.7353h17.628v9.7353c0 .2846.1136.5574.3158.7586s.4764.3142.7624.3142z"/><path d="m67.9232 31h-24.8464c-.2856 0-.5595.1134-.7614.3154-.202.2019-.3154.4758-.3154.7614v7.5698c0 .2856.1134.5595.3154.7614.2019.202.4758.3154.7614.3154h1.4105v27.1998c0 .2856.1135.5595.3154.7614.202.202.4758.3154.7614.3154h19.8772c.2856 0 .5594-.1134.7614-.3154.2019-.2019.3153-.4758.3153-.7614v-27.1998h1.4052c.2856 0 .5595-.1134.7614-.3154.202-.2019.3154-.4758.3154-.7614v-7.5698c0-.2856-.1134-.5595-.3154-.7614-.2019-.202-.4758-.3154-.7614-.3154zm-3.5587 35.8464h-17.7236v-26.123h17.7236zm2.482-28.2765h-22.693v-5.4163h22.693z"/><path d="m51.0526 52.0526h2.8948v2.8948c0 .2791.1109.5469.3083.7443s.4651.3083.7443.3083.5469-.1109.7443-.3083.3083-.4652.3083-.7443v-2.8948h2.8948c.2791 0 .5469-.1109.7443-.3083s.3083-.4651.3083-.7443-.1109-.5469-.3083-.7443-.4652-.3083-.7443-.3083h-2.8948v-2.8948c0-.2791-.1109-.5469-.3083-.7443s-.4651-.3083-.7443-.3083-.5469.1109-.7443.3083-.3083.4652-.3083.7443v2.8948h-2.8948c-.2791 0-.5469.1109-.7443.3083s-.3083.4651-.3083.7443.1109.5469.3083.7443.4652.3083.7443.3083z"/></g></svg>

<svg width="69" height="69" viewBox="0 0 69 69" fill="none" xmlns="http://www.w3.org/2000/svg">
<path d="M40.7214 50.8374H2.13592V20.8353H52.8641V27.7427C52.8641 28.028 52.9766 28.3017 53.1769 28.5035C53.3772 28.7053 53.6488 28.8186 53.932 28.8186C54.2153 28.8186 54.4869 28.7053 54.6872 28.5035C54.8875 28.3017 55 28.028 55 27.7427V8.88713C55 8.60178 54.8875 8.32811 54.6872 8.12634C54.4869 7.92456 54.2153 7.81121 53.932 7.81121H38.3665V1.07592C38.3665 0.790571 38.254 0.516906 38.0537 0.315131C37.8534 0.113356 37.5818 0 37.2985 0C37.0153 0 36.7437 0.113356 36.5434 0.315131C36.3431 0.516906 36.2306 0.790571 36.2306 1.07592V7.81121H18.7694V1.07592C18.7694 0.790571 18.6569 0.516906 18.4566 0.315131C18.2563 0.113356 17.9847 0 17.7015 0C17.4182 0 17.1466 0.113356 16.9463 0.315131C16.746 0.516906 16.6335 0.790571 16.6335 1.07592V7.81121H1.06796C0.78472 7.81121 0.51308 7.92456 0.312799 8.12634C0.112517 8.32811 0 8.60178 0 8.88713L0 51.9241C0 52.2094 0.112517 52.4831 0.312799 52.6849C0.51308 52.8866 0.78472 53 1.06796 53H40.7214C41.0046 53 41.2762 52.8866 41.4765 52.6849C41.6768 52.4831 41.7893 52.2094 41.7893 51.9241C41.7893 51.6387 41.6768 51.3651 41.4765 51.1633C41.2762 50.9615 41.0046 50.8482 40.7214 50.8482V50.8374ZM16.6335 9.95229V13.2877C16.6335 13.573 16.746 13.8467 16.9463 14.0485C17.1466 14.2502 17.4182 14.3636 17.7015 14.3636C17.9847 14.3636 18.2563 14.2502 18.4566 14.0485C18.6569 13.8467 18.7694 13.573 18.7694 13.2877V9.96305H36.2306V13.2877C36.2306 13.573 36.3431 13.8467 36.5434 14.0485C36.7437 14.2502 37.0153 14.3636 37.2985 14.3636C37.5818 14.3636 37.8534 14.2502 38.0537 14.0485C38.254 13.8467 38.3665 13.573 38.3665 13.2877V9.96305H52.8641V18.6834H2.13592V9.96305L16.6335 9.95229Z" fill="white"/>
<path d="M37.8437 47C38.1296 47 38.4039 46.887 38.606 46.6858C38.8082 46.4846 38.9218 46.2118 38.9218 45.9272V36.1758C39.2078 36.1758 39.482 36.0628 39.6842 35.8616C39.8864 35.6605 40 35.3876 40 35.1031C40 34.8186 39.8864 34.5457 39.6842 34.3445C39.482 34.1433 39.2078 34.0303 38.9218 34.0303V25.0728C38.9218 24.7882 38.8082 24.5154 38.606 24.3142C38.4039 24.113 38.1296 24 37.8437 24C37.5577 24 37.2835 24.113 37.0813 24.3142C36.8791 24.5154 36.7655 24.7882 36.7655 25.0728V34.0464H19.1375V25.0728C19.1375 24.7882 19.0239 24.5154 18.8217 24.3142C18.6195 24.113 18.3452 24 18.0593 24C17.7734 24 17.4991 24.113 17.2969 24.3142C17.0947 24.5154 16.9811 24.7882 16.9811 25.0728V34.0464H7.07817C6.93658 34.0464 6.79638 34.0742 6.66557 34.1281C6.53476 34.182 6.41591 34.261 6.31579 34.3606C6.21567 34.4602 6.13625 34.5785 6.08207 34.7086C6.02789 34.8388 6 34.9783 6 35.1192C6 35.26 6.02789 35.3995 6.08207 35.5297C6.13625 35.6599 6.21567 35.7781 6.31579 35.8777C6.41591 35.9773 6.53476 36.0564 6.66557 36.1103C6.79638 36.1642 6.93658 36.1919 7.07817 36.1919H16.9811V45.9272C16.9811 46.2118 17.0947 46.4846 17.2969 46.6858C17.4991 46.887 17.7734 47 18.0593 47C18.3452 47 18.6195 46.887 18.8217 46.6858C19.0239 46.4846 19.1375 46.2118 19.1375 45.9272V36.1919H36.7655V45.9272C36.7655 46.2118 36.8791 46.4846 37.0813 46.6858C37.2835 46.887 37.5577 47 37.8437 47Z" fill="white"/>
<path d="M67.9232 31H43.0768C42.7912 31 42.5173 31.1134 42.3154 31.3154C42.1134 31.5173 42 31.7912 42 32.0768V39.6466C42 39.9322 42.1134 40.2061 42.3154 40.408C42.5173 40.61 42.7912 40.7234 43.0768 40.7234H44.4873V67.9232C44.4873 68.2088 44.6008 68.4827 44.8027 68.6846C45.0047 68.8866 45.2785 69 45.5641 69H65.4413C65.7269 69 66.0007 68.8866 66.2027 68.6846C66.4046 68.4827 66.518 68.2088 66.518 67.9232V40.7234H67.9232C68.2088 40.7234 68.4827 40.61 68.6846 40.408C68.8866 40.2061 69 39.9322 69 39.6466V32.0768C69 31.7912 68.8866 31.5173 68.6846 31.3154C68.4827 31.1134 68.2088 31 67.9232 31ZM64.3645 66.8464H46.6409V40.7234H64.3645V66.8464ZM66.8465 38.5699H44.1535V33.1536H66.8465V38.5699Z" fill="white"/>
<path d="M51.0526 52.0526H53.9474V54.9474C53.9474 55.2265 54.0583 55.4943 54.2557 55.6917C54.4531 55.8891 54.7208 56 55 56C55.2792 56 55.5469 55.8891 55.7443 55.6917C55.9417 55.4943 56.0526 55.2265 56.0526 54.9474V52.0526H58.9474C59.2265 52.0526 59.4943 51.9417 59.6917 51.7443C59.8891 51.5469 60 51.2792 60 51C60 50.7208 59.8891 50.4531 59.6917 50.2557C59.4943 50.0583 59.2265 49.9474 58.9474 49.9474H56.0526V47.0526C56.0526 46.7735 55.9417 46.5057 55.7443 46.3083C55.5469 46.1109 55.2792 46 55 46C54.7208 46 54.4531 46.1109 54.2557 46.3083C54.0583 46.5057 53.9474 46.7735 53.9474 47.0526V49.9474H51.0526C50.7735 49.9474 50.5057 50.0583 50.3083 50.2557C50.1109 50.4531 50 50.7208 50 51C50 51.2792 50.1109 51.5469 50.3083 51.7443C50.5057 51.9417 50.7735 52.0526 51.0526 52.0526Z" fill="white"/>
</svg>
